X:1
T:Caught Up
T:Caught Up
T:Thoro Harris
T:Thoro Harris, circa 1917
T:Public Domain Courtesy of the Cyber Hymnal™
T:Public Domain Courtesy of the Cyber Hymnal™
C:Thoro Harris
Z:Public Domain
Z:Courtesy of the Cyber Hymnal™
%%score ( 1 2 ) ( 3 4 )
L:1/8
Q:1/4=100
M:4/4
K:F
V:1 treble 
V:2 treble 
V:3 bass 
V:4 bass 
V:1
 [CF][CG] | [FA][Fc] [Fc]>[Fd] [Fc][CA][CG][CF] | [EG][EA][DF]D C2 [CF][CG] | %3
w: 1.~Though we|may not know the mo- ment when our|bless- èd Lord shall come To re-|
w: 2.~There are|times when we are called to wade through|wa- ters deep and wide, And the|
w: 3.~Then e-|ter- nal years in glo- ry with our|Sav- ior we will spend; O we|
 [FA] [Fc]2 [Fc] [Fd][Fc][FA][Fc] | [EG]6 [CF][CG] | [FA][Fc] [Fc]>[Fd] [Fc][FA][EG][DF] | %6
w: ceive us to man- sions “o- ver|there,” Yet we|know ’twill not be long be- fore He|
w: sor- rows of Christ Him- self to|share; We re-|mem- ber He has prom- ised to be|
w: long for that morn- ing bright and|fair! When the|days of our so- journ- ing and our|
 [DG][^CA][DF][B,D] [A,=C]2 F[FG] | [FA] [Fd]2 [Fc] [EG][EB][EA][EG] | F6 ||"^Refrain" [FA][GB] | %10
w: takes His loved ones home, And we’re|caught up to meet Him in the|air.||
w: ev- er at our side, Till we’re|caught up to meet Him in the|air.|We’ll be|
w: pil- grim- age shall end, We’ll be|caught up to meet Him in the|air.||
 [Ac] [Ac]2 [Ac] [Bd][Ac][Ac][FA] | B6 [EG][FA] | [GB] [GB]2 [GB] [Ac][GB][GB][EG] | [FA]6 AB | %14
w: ||||
w: caught up to meet Him in the|air, We’ll be|caught up His bless- ed- ness to|share; Ver- y|
w: ||||
 [_Ec] [Ed]2 [Ec] [EA]3 [EF] x2 | [DG][DF][DF]D [GB]4 | [FA] [FA]2 C [EG][E^F][EG][EA] | F6 |] %18
w: ||||
w: soon He will come To|take His peo- ple home|Caught up to meet Him in the|air.|
w: ||||
V:2
 x2 | x8 | x3 D C2 x2 | x8 | x8 | x8 | x6 F x | x8 | F6 || x2 | x8 | (EEGF E2) x2 | x8 | x8 | x10 | %15
 x3 D x4 | x3 C x4 | F6 |] %18
V:3
 [F,A,][F,B,] | [F,C][F,A,] [F,A,]>[F,B,] [F,A,]F,[F,G,][F,A,] | %2
w: ~ ~|~ ~ ~ ~ ~ ~ ~ ~|
 [C,B,][^C,A,][D,A,]B,, [F,,A,]2 [F,A,][F,B,] | [F,C] [F,A,]2 [F,A,] [F,B,][F,A,][F,C][A,,C] | %4
w: ~ ~ ~ ~ ~ ~ ~|~ ~ ~ ~ ~ ~ ~|
 [C,B,]6 [F,A,][F,B,] | [F,C][F,A,] [F,A,]>[F,B,] [F,A,][F,C][C,B,][D,A,] | %6
w: ~ ~ ~|~ ~ ~ ~ ~ ~ ~ ~|
 [B,,G,][A,,G,][B,,F,][D,F,] A,2 [D,A,][D,=B,] | [C,C] [C,A,]2 [C,A,] [C,B,][C,G,][C,C][C,B,] | %8
w: ~ ~ ~ ~ ~ ~ ~|~ ~ ~ ~ ~ ~ ~|
 [F,A,]6 || z2 | [F,C] [F,F]2 [F,F] [F,F][F,F][F,C][F,C] | [G,C][C,C][E,C][G,C] C2 z2 | %12
w: ~||~ ~ ~ ~ ~ ~ ~|~ ~ the am- bient|
 [C,C] [C,E]2 [C,D] [C,C][C,C][C,C][C,B,] | [F,A,]F,[F,A,][F,D] [F,C]2 F,G, | %14
w: air ~ ~ ~ ~ ~ ~|for- ev- er- more to share; ~|
 [F,A,] [F,A,]2 [F,A,] C2 z x3 | [B,,B,][B,,B,][B,,B,][B,,B,] B,DED | %16
w: ~ ~ ~ ~|~ ~ ~ ~ ~ ~ ~ ~|
 [C,C] [C,C]2 [C,A,] [C,B,][C,A,][C,B,][C,C] | [F,,A,]6 |] %18
w: and we’ll be * * * *||
V:4
 x2 | x5 F, x2 | x8 | x8 | x8 | x8 | x4 F,E, x2 | x8 | x6 || x2 | x8 | x4 C2 x2 | x8 | x F, x6 | %14
 x4 F,3 (A,2 F,) | x4 G,,4 | x8 | x6 |] %18

